; generated by PrusaSlicer 2.7.1+win64 on 2025-03-01 at 19:16:28 UTC

; 

; external perimeters extrusion width = 0.45mm
; perimeters extrusion width = 0.45mm
; infill extrusion width = 0.45mm
; solid infill extrusion width = 0.45mm
; top infill extrusion width = 0.40mm
; support material extrusion width = 0.35mm
; first layer extrusion width = 0.42mm

; external perimeters extrusion width = 0.45mm
; perimeters extrusion width = 0.45mm
; infill extrusion width = 0.45mm
; solid infill extrusion width = 0.45mm
; top infill extrusion width = 0.40mm
; support material extrusion width = 0.35mm
; first layer extrusion width = 0.42mm

M190 S90 ; set bed temperature and wait for it to be reached
M104 S225 ; set temperature
;TYPE:Custom
G28 ; home all axes
G1 Z5 F5000 ; lift nozzle
M109 S225 ; set temperature and wait for it to be reached
G21 ; set units to millimeters
G90 ; use absolute coordinates
M82 ; use absolute distances for extrusion
G92 E0
; Filament gcode
M107
;LAYER_CHANGE
;Z:0.35
;HEIGHT:0.35
G1 Z.35 F7800
G1 E-2 F2400
G92 E0
G1 X65.426 Y57.181 F7800
G1 E2 F2400
;TYPE:Skirt/Brim
;WIDTH:0.42
G1 F1800
G1 X67.168 Y55.766 E2.11263
G1 X69.06 Y55.086 E2.21353
G1 X111.307 Y47.14 E4.37091
G1 X112.974 Y47.05 E4.45469
G1 X120.913 Y47.671 E4.85433
G1 X122.318 Y47.943 E4.92615
G1 X194.597 Y70.626 E8.72797
G1 X201.429 Y72.866 E9.0888
G1 X203.045 Y73.666 E9.17929
G1 X207.427 Y76.678 E9.44615
G1 X208.609 Y77.729 E9.52553
G1 X211.995 Y81.601 E9.78367
G1 X212.954 Y83.062 E9.87138
G1 X215.196 Y87.795 E10.13421
G1 X215.707 Y89.39 E10.21826
G1 X216.751 Y95.203 E10.51466
G1 X216.751 Y97.443 E10.62708
G1 X215.709 Y103.26 E10.92366
G1 X215.198 Y104.856 E11.00776
G1 X212.956 Y109.591 E11.27068
G1 X211.998 Y111.052 E11.35836
G1 X208.613 Y114.923 E11.61643
G1 X207.432 Y115.974 E11.69577
G1 X203.053 Y118.987 E11.96253
G1 X201.435 Y119.788 E12.05314
G1 X194.688 Y122.002 E12.40951
G1 X193.211 Y122.299 E12.48512
G1 X185.285 Y122.928 E12.88414
G1 X183.61 Y122.838 E12.96832
G1 X140.612 Y114.705 E15.16448
G1 X68.333 Y92.022 E18.9663
G1 X66.344 Y90.982 E19.07894
G1 X64.842 Y89.315 E19.19155
G1 X64.014 Y87.229 E19.30418
G1 X63.888 Y85.968 E19.36778
G1 X63.888 Y61.322 E20.60466
G1 X64.285 Y59.113 E20.7173
G1 X65.395 Y57.233 E20.82687
G1 E18.82687 F2400
G92 E0
G1 X65.395 Y57.233 F7800
G1 X185.831 Y95.91
G1 E2 F2400
;TYPE:Support material interface
;WIDTH:0.35
G1 F1800
G1 X188.802 Y96.143 E2.1192
G1 X189.053 Y96.225 E2.12976
G1 X189.053 Y96.432 E2.13804
G1 X188.802 Y96.514 E2.1486
G1 X185.844 Y96.749 E2.26729
G1 X184.238 Y96.447 E2.33266
G1 X184.238 Y96.21 E2.34214
G1 X185.831 Y95.91 E2.40698
G1 X185.815 Y95.623 F7800
G1 F1800
G1 X188.859 Y95.861 E2.52911
G1 X189.969 Y96.225 E2.57584
G1 X189.969 Y96.432 E2.58412
G1 X188.859 Y96.796 E2.63085
G1 X185.828 Y97.037 E2.75247
G1 X182.693 Y96.447 E2.88007
G1 X182.693 Y96.21 E2.88955
G1 X185.815 Y95.623 E3.01662
G1 X185.8 Y95.335 F7800
G1 F1800
G1 X181.148 Y96.21 E3.20596
G1 X181.148 Y96.447 E3.21544
G1 X185.813 Y97.324 E3.40531
G1 X188.915 Y97.078 E3.52978
G1 X190.885 Y96.432 E3.61271
G1 X190.885 Y96.225 E3.62099
G1 X188.915 Y95.579 E3.70392
G1 X185.8 Y95.335 E3.8289
G1 X185.784 Y95.047 F7800
G1 F1800
G1 X179.603 Y96.21 E4.08048
G1 X179.603 Y96.447 E4.08996
G1 X185.798 Y97.612 E4.3421
G1 X188.972 Y97.36 E4.46946
G1 X191.005 Y96.693 E4.55504
G1 X191.358 Y96.328 E4.57535
G1 X191.004 Y95.963 E4.59569
G1 X188.972 Y95.297 E4.68122
G1 X185.784 Y95.047 E4.80913
G1 X185.769 Y94.76 F7800
G1 F1800
G1 X189.028 Y95.015 E4.93989
G1 X191.132 Y95.705 E5.02846
G1 X191.547 Y96.059 E5.05028
G1 X191.625 Y96.432 E5.06552
G1 X191.395 Y96.771 E5.08191
G1 X191.133 Y96.952 E5.09465
G1 X189.028 Y97.642 E5.18326
G1 X185.782 Y97.9 E5.31351
G1 X178.058 Y96.447 E5.62789
G1 X178.058 Y96.21 E5.63737
G1 X185.769 Y94.76 E5.95122
G1 X185.753 Y94.472 F7800
G1 F1800
G1 X189.085 Y94.732 E6.08491
G1 X191.26 Y95.446 E6.17648
G1 X191.788 Y95.901 E6.20436
G1 X191.9 Y96.137 E6.21481
G1 X191.9 Y96.52 E6.23013
G1 X191.587 Y96.986 E6.25258
G1 X191.261 Y97.21 E6.2684
G1 X189.085 Y97.924 E6.36001
G1 X185.767 Y98.188 E6.49315
G1 X176.513 Y96.447 E6.8698
G1 X176.513 Y96.21 E6.87928
G1 X185.753 Y94.472 E7.25536
G1 X185.738 Y94.184 F7800
G1 F1800
G1 X189.141 Y94.45 E7.3919
G1 X191.388 Y95.187 E7.48649
G1 X191.778 Y95.456 E7.50544
G1 X192.029 Y95.743 E7.52069
G1 X192.224 Y96.328 E7.54536
G1 X192.174 Y96.608 E7.55674
G1 X191.778 Y97.201 E7.58526
G1 X191.389 Y97.469 E7.60416
G1 X189.142 Y98.206 E7.69875
G1 X185.751 Y98.475 E7.83482
G1 X174.968 Y96.447 E8.2737
G1 X174.968 Y96.21 E8.28318
G1 X185.738 Y94.184 E8.72154
G1 X185.722 Y93.896 F7800
G1 F1800
G1 X189.197 Y94.168 E8.86097
G1 X191.516 Y94.929 E8.9586
G1 X191.969 Y95.241 E8.9806
G1 X192.27 Y95.585 E8.99888
G1 X192.449 Y95.961 E9.01554
G1 X192.515 Y96.328 E9.03046
G1 X192.449 Y96.695 E9.04538
G1 X192.271 Y97.072 E9.06206
G1 X191.969 Y97.416 E9.08037
G1 X191.517 Y97.727 E9.10232
G1 X189.198 Y98.488 E9.19995
G1 X185.736 Y98.763 E9.33887
G1 X173.423 Y96.447 E9.84003
G1 X173.423 Y96.21 E9.84951
G1 X185.722 Y93.896 E10.3501
G1 X185.707 Y93.609 F7800
G1 F1800
G1 X189.254 Y93.886 E10.49241
G1 X191.644 Y94.67 E10.59302
G1 X192.161 Y95.025 E10.61811
G1 X192.511 Y95.427 E10.63943
G1 X192.723 Y95.873 E10.65918
G1 X192.805 Y96.328 E10.67767
G1 X192.723 Y96.783 E10.69616
G1 X192.512 Y97.23 E10.71593
G1 X192.161 Y97.631 E10.73725
G1 X191.645 Y97.986 E10.7623
G1 X189.255 Y98.77 E10.86291
G1 X185.721 Y99.051 E11.00472
G1 X171.878 Y96.447 E11.56815
G1 X171.878 Y96.21 E11.57763
G1 X185.707 Y93.609 E12.14049
G1 X185.691 Y93.321 F7800
G1 F1800
G1 X189.31 Y93.604 E12.28569
G1 X191.772 Y94.412 E12.38934
G1 X192.352 Y94.81 E12.41748
G1 X192.753 Y95.268 E12.44183
G1 X192.998 Y95.785 E12.46471
G1 X193.095 Y96.328 E12.48677
G1 X192.998 Y96.871 E12.50883
G1 X192.753 Y97.388 E12.53171
G1 X192.352 Y97.846 E12.55606
G1 X191.773 Y98.245 E12.58419
G1 X189.312 Y99.052 E12.68779
G1 X185.705 Y99.339 E12.83253
G1 X170.333 Y96.447 E13.4582
G1 X170.333 Y96.21 E13.46768
G1 X185.691 Y93.321 E14.09277
G1 X185.676 Y93.033 F7800
G1 F1800
G1 X189.367 Y93.322 E14.24086
G1 X191.9 Y94.153 E14.34749
G1 X192.543 Y94.595 E14.3787
G1 X192.994 Y95.11 E14.40608
G1 X193.272 Y95.697 E14.43206
G1 X193.385 Y96.328 E14.4577
G1 X193.272 Y96.959 E14.48334
G1 X192.994 Y97.546 E14.50932
G1 X192.544 Y98.061 E14.53668
G1 X191.901 Y98.503 E14.56789
G1 X189.368 Y99.334 E14.67452
G1 X185.69 Y99.626 E14.8221
G1 X168.788 Y96.447 E15.51003
G1 X168.788 Y96.21 E15.51951
G1 X185.676 Y93.033 E16.20688
G1 X185.66 Y92.746 F7800
G1 F1800
G1 X167.242 Y96.21 E16.95652
G1 X167.242 Y96.447 E16.966
G1 X185.675 Y99.914 E17.71625
G1 X189.425 Y99.616 E17.86672
G1 X192.029 Y98.762 E17.97634
G1 X192.735 Y98.276 E18.01062
G1 X193.235 Y97.704 E18.04101
G1 X193.546 Y97.047 E18.07009
G1 X193.675 Y96.328 E18.09931
G1 X193.546 Y95.61 E18.12849
G1 X193.235 Y94.952 E18.1576
G1 X192.735 Y94.38 E18.18799
G1 X192.028 Y93.894 E18.22231
G1 X189.423 Y93.04 E18.33197
G1 X185.66 Y92.746 E18.48295
G1 X185.645 Y92.458 F7800
G1 F1800
G1 X189.48 Y92.758 E18.63682
G1 X192.156 Y93.636 E18.74947
G1 X192.926 Y94.165 E18.78684
G1 X193.476 Y94.794 E18.82026
G1 X193.821 Y95.522 E18.85248
G1 X193.965 Y96.328 E18.88523
G1 X193.821 Y97.135 E18.91802
G1 X193.476 Y97.862 E18.95021
G1 X192.926 Y98.491 E18.98363
G1 X192.157 Y99.02 E19.02097
G1 X189.481 Y99.898 E19.13362
G1 X185.659 Y100.202 E19.28698
G1 X165.697 Y96.447 E20.09946
G1 X165.697 Y96.21 E20.10894
G1 X185.645 Y92.458 E20.92085
G1 X185.629 Y92.17 F7800
G1 F1800
G1 X189.536 Y92.476 E21.07761
G1 X192.284 Y93.377 E21.19329
G1 X193.117 Y93.95 E21.23373
G1 X193.717 Y94.636 E21.27018
G1 X194.095 Y95.434 E21.3055
G1 X194.256 Y96.328 E21.34184
G1 X194.095 Y97.222 E21.37818
G1 X193.718 Y98.02 E21.41348
G1 X193.118 Y98.706 E21.44993
G1 X192.285 Y99.279 E21.49037
G1 X189.538 Y100.181 E21.60602
G1 X185.644 Y100.49 E21.76227
G1 X164.152 Y96.447 E22.63703
G1 X164.152 Y96.21 E22.64651
G1 X185.629 Y92.17 E23.52066
G1 X185.614 Y91.883 F7800
G1 F1800
G1 X189.593 Y92.194 E23.68031
G1 X192.412 Y93.119 E23.79899
G1 X193.309 Y93.735 E23.84252
G1 X193.958 Y94.478 E23.88198
G1 X194.37 Y95.346 E23.92041
G1 X194.546 Y96.328 E23.96032
G1 X194.37 Y97.31 E24.00023
G1 X193.959 Y98.178 E24.03865
G1 X193.309 Y98.921 E24.07814
G1 X192.413 Y99.537 E24.12163
G1 X189.595 Y100.463 E24.24028
G1 X185.628 Y100.777 E24.39946
G1 X162.607 Y96.447 E25.33645
G1 X162.607 Y96.21 E25.34593
G1 X185.614 Y91.883 E26.28234
G1 X185.598 Y91.595 F7800
G1 F1800
G1 X189.649 Y91.912 E26.44488
G1 X192.54 Y92.86 E26.56658
G1 X193.5 Y93.52 E26.61318
G1 X194.199 Y94.319 E26.65564
G1 X194.644 Y95.258 E26.6972
G1 X194.836 Y96.328 E26.74068
G1 X194.644 Y97.398 E26.78416
G1 X194.2 Y98.337 E26.82571
G1 X193.501 Y99.136 E26.86817
G1 X192.541 Y99.796 E26.91477
G1 X189.651 Y100.745 E27.03644
G1 X185.613 Y101.065 E27.19847
G1 X161.062 Y96.447 E28.19773
G1 X161.062 Y96.21 E28.20721
G1 X185.598 Y91.595 E29.20586
G1 X185.582 Y91.307 F7800
G1 F1800
G1 X189.706 Y91.63 E29.37133
G1 X192.668 Y92.601 E29.49601
G1 X193.691 Y93.305 E29.54568
G1 X194.44 Y94.161 E29.59118
G1 X194.918 Y95.17 E29.63584
G1 X195.126 Y96.327 E29.68286
G1 X194.919 Y97.486 E29.72995
G1 X194.441 Y98.495 E29.77461
G1 X193.692 Y99.351 E29.82011
G1 X192.669 Y100.055 E29.86978
G1 X189.708 Y101.027 E29.99444
G1 X185.598 Y101.353 E30.15936
G1 X159.517 Y96.447 E31.2209
G1 X159.517 Y96.21 E31.23038
G1 X185.582 Y91.307 E32.29127
G1 X185.567 Y91.019 F7800
G1 F1800
G1 X189.762 Y91.348 E32.45959
G1 X192.796 Y92.343 E32.58731
G1 X193.883 Y93.09 E32.64007
G1 X194.682 Y94.003 E32.6886
G1 X195.193 Y95.082 E32.73636
G1 X195.416 Y96.327 E32.78695
G1 X195.193 Y97.574 E32.83762
G1 X194.682 Y98.653 E32.88538
G1 X193.883 Y99.566 E32.93391
G1 X192.797 Y100.313 E32.98663
G1 X189.765 Y101.309 E33.11429
G1 X185.582 Y101.64 E33.28213
G1 X157.972 Y96.447 E34.40589
G1 X157.972 Y96.21 E34.41537
G1 X185.567 Y91.019 E35.53853
G1 X185.551 Y90.732 F7800
G1 F1800
G1 X189.818 Y91.065 E35.70973
G1 X192.924 Y92.084 E35.84049
G1 X194.074 Y92.875 E35.89632
G1 X194.923 Y93.845 E35.94788
G1 X195.467 Y94.994 E35.99873
G1 X195.707 Y96.327 E36.05291
G1 X195.468 Y97.661 E36.10712
G1 X194.923 Y98.811 E36.15802
G1 X194.075 Y99.781 E36.20956
G1 X192.925 Y100.572 E36.26539
G1 X189.821 Y101.591 E36.39607
G1 X185.567 Y101.928 E36.56676
G1 X157.079 Y96.569 E37.72627
G1 X157.079 Y96.087 E37.74555
G1 X185.551 Y90.732 E38.9044
G1 X185.536 Y90.444 F7800
G1 F1800
G1 X189.875 Y90.783 E39.07849
G1 X193.052 Y91.825 E39.21223
G1 X194.266 Y92.66 E39.27117
G1 X195.164 Y93.687 E39.32574
G1 X195.742 Y94.906 E39.3797
G1 X195.997 Y96.327 E39.43745
G1 X195.742 Y97.749 E39.49524
G1 X195.164 Y98.969 E39.54924
G1 X194.266 Y99.996 E39.60381
G1 X193.054 Y100.83 E39.66266
G1 X189.878 Y101.873 E39.79638
G1 X185.552 Y102.216 E39.96996
G1 X156.793 Y96.806 E41.1405
G1 X156.793 Y95.85 E41.17874
G1 X185.536 Y90.444 E42.34862
G1 X185.52 Y90.156 F7800
G1 F1800
G1 X156.508 Y95.613 E43.52945
G1 X156.508 Y97.043 E43.58665
G1 X185.536 Y102.504 E44.76814
G1 X189.934 Y102.155 E44.94461
G1 X193.182 Y101.089 E45.08135
G1 X194.458 Y100.211 E45.14331
G1 X195.406 Y99.127 E45.20091
G1 X196.016 Y97.837 E45.25799
G1 X196.287 Y96.327 E45.31936
G1 X196.016 Y94.818 E45.38069
G1 X195.405 Y93.529 E45.43775
G1 X194.457 Y92.445 E45.49535
G1 X193.18 Y91.567 E45.55734
G1 X189.931 Y90.501 E45.69412
G1 X185.52 Y90.156 E45.8711
G1 X185.505 Y89.869 F7800
G1 F1800
G1 X189.988 Y90.219 E46.05097
G1 X193.308 Y91.308 E46.19073
G1 X194.648 Y92.23 E46.25579
G1 X195.646 Y93.37 E46.31639
G1 X196.29 Y94.731 E46.37662
G1 X196.577 Y96.327 E46.44148
G1 X196.291 Y97.925 E46.50642
G1 X195.647 Y99.285 E46.56661
G1 X194.649 Y100.426 E46.62725
G1 X193.31 Y101.347 E46.69226
G1 X189.991 Y102.437 E46.832
G1 X185.521 Y102.791 E47.01136
G1 X156.222 Y97.28 E48.20387
G1 X156.222 Y95.376 E48.28003
G1 X185.505 Y89.869 E49.47188
G1 X185.489 Y89.581 F7800
G1 F1800
G1 X190.044 Y89.937 E49.65464
G1 X193.436 Y91.05 E49.79744
G1 X194.84 Y92.015 E49.86559
G1 X195.887 Y93.212 E49.9292
G1 X196.565 Y94.643 E49.99254
G1 X196.867 Y96.327 E50.06097
G1 X196.565 Y98.013 E50.12948
G1 X195.888 Y99.443 E50.19277
G1 X194.84 Y100.641 E50.25644
G1 X193.438 Y101.606 E50.32452
G1 X190.048 Y102.719 E50.46724
G1 X185.505 Y103.079 E50.64953
G1 X155.936 Y97.517 E51.85303
G1 X155.936 Y95.14 E51.94811
G1 X185.489 Y89.581 E53.15096
G1 X185.474 Y89.293 F7800
G1 F1800
G1 X155.651 Y94.903 E54.3648
G1 X155.651 Y97.754 E54.47884
G1 X185.49 Y103.367 E55.69333
G1 X190.104 Y103.001 E55.87847
G1 X193.566 Y101.865 E56.02421
G1 X195.032 Y100.856 E56.0954
G1 X196.129 Y99.602 E56.16204
G1 X196.84 Y98.101 E56.22848
G1 X197.157 Y96.327 E56.30056
G1 X196.839 Y94.555 E56.37257
G1 X196.128 Y93.054 E56.43901
G1 X195.031 Y91.8 E56.50565
G1 X193.564 Y90.791 E56.57687
G1 X190.101 Y89.655 E56.72265
G1 X185.474 Y89.293 E56.9083
G1 X185.458 Y89.005 F7800
G1 F1800
G1 X190.157 Y89.373 E57.09684
G1 X193.692 Y90.532 E57.24565
G1 X195.222 Y91.585 E57.31994
G1 X196.369 Y92.896 E57.38962
G1 X197.114 Y94.467 E57.45917
G1 X197.448 Y96.327 E57.53476
G1 X197.114 Y98.188 E57.61039
G1 X196.37 Y99.76 E57.67996
G1 X195.223 Y101.071 E57.74964
G1 X193.694 Y102.123 E57.82388
G1 X190.161 Y103.283 E57.97262
G1 X185.475 Y103.655 E58.16065
G1 X155.365 Y97.991 E59.38617
G1 X155.365 Y94.666 E59.51917
G1 X185.458 Y89.005 E60.744
G1 X185.443 Y88.718 F7800
G1 F1800
G1 X155.08 Y94.429 E61.97982
G1 X155.079 Y98.228 E62.13178
G1 X185.459 Y103.942 E63.36829
G1 X190.218 Y103.565 E63.55925
G1 X193.822 Y102.382 E63.71098
G1 X195.415 Y101.286 E63.78832
G1 X196.611 Y99.918 E63.861
G1 X197.389 Y98.276 E63.93368
G1 X197.738 Y96.327 E64.01288
G1 X197.388 Y94.379 E64.09205
G1 X196.611 Y92.738 E64.16468
G1 X195.414 Y91.369 E64.23742
G1 X193.82 Y90.274 E64.31477
G1 X190.214 Y89.091 E64.46657
G1 X185.443 Y88.718 E64.65799
G1 X185.427 Y88.43 F7800
G1 F1800
G1 X154.794 Y94.192 E65.9048
G1 X154.794 Y98.465 E66.07572
G1 X185.444 Y104.23 E67.32322
G1 X190.274 Y103.847 E67.51703
G1 X193.95 Y102.64 E67.67179
G1 X195.606 Y101.501 E67.75219
G1 X196.852 Y100.076 E67.82791
G1 X197.663 Y98.364 E67.90369
G1 X198.028 Y96.327 E67.98647
G1 X197.662 Y94.291 E68.06922
G1 X196.852 Y92.58 E68.14494
G1 X195.605 Y91.154 E68.22071
G1 X193.948 Y90.015 E68.30114
G1 X190.27 Y88.809 E68.45597
G1 X185.427 Y88.43 E68.65028
G1 X185.412 Y88.142 F7800
G1 F1800
G1 X154.508 Y93.955 E69.90812
G1 X154.508 Y98.701 E70.09796
G1 X185.429 Y104.518 E71.3565
G1 X190.331 Y104.129 E71.5532
G1 X194.078 Y102.899 E71.71095
G1 X195.797 Y101.716 E71.79442
G1 X197.094 Y100.234 E71.8732
G1 X197.937 Y98.452 E71.95205
G1 X198.318 Y96.327 E72.03841
G1 X197.937 Y94.203 E72.12473
G1 X197.093 Y92.421 E72.2036
G1 X195.796 Y90.939 E72.28238
G1 X194.076 Y89.757 E72.36586
G1 X190.326 Y88.527 E72.52372
G1 X185.412 Y88.142 E72.72088
G1 X185.396 Y87.855 F7800
G1 F1800
G1 X190.383 Y88.245 E72.92097
G1 X194.204 Y89.498 E73.08182
G1 X195.988 Y90.724 E73.16841
G1 X197.334 Y92.263 E73.25019
G1 X198.211 Y94.115 E73.33216
G1 X198.608 Y96.327 E73.42205
G1 X198.212 Y98.54 E73.51198
G1 X197.335 Y100.392 E73.59395
G1 X195.989 Y101.931 E73.67573
G1 X194.206 Y103.157 E73.76228
G1 X190.387 Y104.411 E73.92306
G1 X185.413 Y104.806 E74.12265
G1 X154.223 Y98.938 E75.39214
G1 X154.223 Y93.718 E75.60094
G1 X185.396 Y87.855 E76.86972
G1 X185.381 Y87.567 F7800
G1 F1800
G1 X190.439 Y87.963 E77.07266
G1 X194.332 Y89.239 E77.23653
G1 X196.179 Y90.509 E77.32619
G1 X197.575 Y92.105 E77.41101
G1 X198.486 Y94.027 E77.49609
G1 X198.898 Y96.327 E77.58955
G1 X198.486 Y98.628 E77.68305
G1 X197.576 Y100.55 E77.76811
G1 X196.18 Y102.146 E77.85293
G1 X194.334 Y103.416 E77.94256
G1 X190.444 Y104.693 E78.10633
G1 X185.398 Y105.093 E78.3088
G1 X153.937 Y99.175 E79.58931
G1 X153.937 Y93.481 E79.81707
G1 X185.381 Y87.567 E81.09688
G1 X185.365 Y87.279 F7800
G1 F1800
G1 X153.651 Y93.244 E82.38768
G1 X153.651 Y99.412 E82.6344
G1 X185.383 Y105.381 E83.92594
G1 X190.501 Y104.975 E84.1313
G1 X194.462 Y103.675 E84.29806
G1 X196.372 Y102.361 E84.39079
G1 X197.817 Y100.708 E84.47861
G1 X198.761 Y98.715 E84.56682
G1 X199.189 Y96.327 E84.66386
G1 X198.76 Y93.939 E84.76091
